;FLAVOR:Marlin
;TIME:1487
;Filament used: 1.17419m
;Layer height: 0.2
;MINX:92.2
;MINY:77.2
;MINZ:0.3
;MAXX:127.8
;MAXY:142.8
;MAXZ:31.9
;Generated with Cura_SteamEngine 4.1.0
M140 S60
M105
M190 S60
M104 S200
M105
M109 S200
M82 ;absolute extrusion mode
G21 ;metric values
G90 ;absolute positioning
M82 ;set extruder to absolute mode
M107 ;start with the fan off
G28 X0 Y0 ;move X/Y to min endstops
G28 Z0 ;move Z to min endstops
G1 Z15.0 F9000 ;move the platform down 15mm
G92 E0 ;zero the extruded length
G1 F200 E3 ;extrude 3mm of feed stock
G92 E0 ;zero the extruded length again
G1 F9000;Put printing message on LCD screen
M117 Printing..0
G92 E0
G92 E0
G1 F1500 E-6.5
;LAYER_COUNT:159
;LAYER:0
M107
G0 F3600 X94.08 Y79.922 Z0.3
;TYPE:SKIRT
G1 F1500 E0
G1 F1800 X94.623 Y79.349 E0.03938
G1 X95.222 Y78.834 E0.0788
G1 X95.87 Y78.383 E0.11818
G1 X96.561 Y77.999 E0.15762
G1 X97.286 Y77.687 E0.197
G1 X98.039 Y77.45 E0.23638
G1 X98.813 Y77.291 E0.27581
G1 X99.598 Y77.21 E0.31518
G1 X100 Y77.2 E0.33524
G1 X120 Y77.2 E1.33304
G1 X120.789 Y77.24 E1.37246
G1 X121.569 Y77.359 E1.41182
G1 X122.334 Y77.557 E1.45125
G1 X123.074 Y77.831 E1.49061
G1 X123.783 Y78.179 E1.53002
G1 X124.454 Y78.597 E1.56946
G1 X125.078 Y79.08 E1.60883
G1 X125.651 Y79.623 E1.64821
G1 X126.166 Y80.222 E1.68762
G1 X126.617 Y80.87 E1.72701
G1 X127.001 Y81.561 E1.76645
G1 X127.313 Y82.286 E1.80583
G1 X127.55 Y83.039 E1.84521
G1 X127.709 Y83.813 E1.88463
G1 X127.79 Y84.598 E1.924
G1 X127.8 Y85 E1.94407
G1 X127.8 Y135 E4.43858
G1 X127.76 Y135.789 E4.47799
G1 X127.641 Y136.569 E4.51735
G1 X127.443 Y137.334 E4.55678
G1 X127.169 Y138.074 E4.59615
G1 X126.821 Y138.783 E4.63555
G1 X126.403 Y139.454 E4.67499
G1 X125.92 Y140.078 E4.71436
G1 X125.377 Y140.651 E4.75374
G1 X124.778 Y141.166 E4.79315
G1 X124.13 Y141.617 E4.83254
G1 X123.439 Y142.001 E4.87198
G1 X122.714 Y142.313 E4.91136
G1 X121.961 Y142.55 E4.95074
G1 X121.187 Y142.709 E4.99016
G1 X120.402 Y142.79 E5.02954
G1 X120 Y142.8 E5.0496
G1 X100 Y142.8 E6.0474
G1 X99.211 Y142.76 E6.08682
G1 X98.431 Y142.641 E6.12618
G1 X97.666 Y142.443 E6.1656
G1 X96.926 Y142.169 E6.20497
G1 X96.217 Y141.821 E6.24438
G1 X95.546 Y141.403 E6.28382
G1 X94.922 Y140.92 E6.32318
G1 X94.349 Y140.377 E6.36257
G1 X93.834 Y139.778 E6.40198
G1 X93.383 Y139.13 E6.44137
G1 X92.999 Y138.439 E6.48081
G1 X92.687 Y137.714 E6.52018
G1 X92.45 Y136.961 E6.55957
G1 X92.291 Y136.187 E6.59899
G1 X92.21 Y135.402 E6.63836
G1 X92.2 Y135 E6.65842
G1 X92.2 Y85 E9.15293
G1 X92.24 Y84.211 E9.19235
G1 X92.359 Y83.431 E9.23171
G1 X92.557 Y82.666 E9.27114
G1 X92.831 Y81.926 E9.3105
G1 X93.179 Y81.217 E9.34991
G1 X93.597 Y80.546 E9.38935
G1 X94.08 Y79.922 E9.42872
G0 F3600 X94.475 Y80.077
G1 F1800 X95.016 Y79.53 E9.4671
G1 X95.611 Y79.042 E9.50549
G1 X96.253 Y78.619 E9.54385
G1 X96.936 Y78.264 E9.58225
G1 X97.651 Y77.983 E9.62058
G1 X98.393 Y77.777 E9.659
G1 X99.151 Y77.649 E9.69735
G1 X100 Y77.6 E9.73978
G1 X120 Y77.6 E10.73758
G1 X120.768 Y77.64 E10.77595
G1 X121.528 Y77.759 E10.81433
G1 X122.271 Y77.957 E10.85269
G1 X122.99 Y78.231 E10.89108
G1 X123.676 Y78.578 E10.92943
G1 X124.323 Y78.994 E10.96781
G1 X124.923 Y79.475 E11.00617
G1 X125.47 Y80.016 E11.04455
G1 X125.958 Y80.611 E11.08295
G1 X126.381 Y81.253 E11.1213
G1 X126.736 Y81.936 E11.15971
G1 X127.017 Y82.651 E11.19803
G1 X127.223 Y83.393 E11.23645
G1 X127.351 Y84.151 E11.2748
G1 X127.4 Y85 E11.31723
G1 X127.4 Y135 E13.81174
G1 X127.36 Y135.768 E13.85011
G1 X127.241 Y136.528 E13.88849
G1 X127.043 Y137.271 E13.92685
G1 X126.769 Y137.99 E13.96524
G1 X126.422 Y138.676 E14.00359
G1 X126.006 Y139.323 E14.04197
G1 X125.525 Y139.923 E14.08033
G1 X124.984 Y140.47 E14.11871
G1 X124.389 Y140.958 E14.15711
G1 X123.747 Y141.381 E14.19546
G1 X123.064 Y141.736 E14.23387
G1 X122.349 Y142.017 E14.27219
G1 X121.607 Y142.223 E14.31061
G1 X120.849 Y142.351 E14.34896
G1 X120 Y142.4 E14.39139
G1 X100 Y142.4 E15.3892
G1 X99.232 Y142.36 E15.42756
G1 X98.472 Y142.241 E15.46594
G1 X97.729 Y142.043 E15.5043
G1 X97.01 Y141.769 E15.54269
G1 X96.324 Y141.422 E15.58105
G1 X95.677 Y141.006 E15.61942
G1 X95.077 Y140.525 E15.65779
G1 X94.53 Y139.984 E15.69617
G1 X94.042 Y139.389 E15.73456
G1 X93.619 Y138.747 E15.77292
G1 X93.264 Y138.064 E15.81132
G1 X92.983 Y137.349 E15.84965
G1 X92.777 Y136.607 E15.88807
G1 X92.649 Y135.849 E15.92642
G1 X92.6 Y135 E15.96885
G1 X92.6 Y85 E18.46336
G1 X92.64 Y84.232 E18.50172
G1 X92.759 Y83.472 E18.5401
G1 X92.957 Y82.729 E18.57846
G1 X93.231 Y82.01 E18.61685
G1 X93.578 Y81.324 E18.65521
G1 X93.994 Y80.677 E18.69358
G1 X94.475 Y80.077 E18.73195
G0 F3600 X94.871 Y80.237
G1 F1800 X95.408 Y79.716 E18.76928
G1 X95.998 Y79.257 E18.80657
G1 X96.634 Y78.862 E18.84392
G1 X97.308 Y78.538 E18.88123
G1 X98.013 Y78.288 E18.91855
G1 X98.741 Y78.114 E18.95589
G1 X99.483 Y78.019 E18.99321
G1 X100 Y78 E19.01902
G1 X120 Y78 E20.01683
G1 X120.747 Y78.04 E20.05415
G1 X121.485 Y78.159 E20.09144
G1 X122.207 Y78.357 E20.12879
G1 X122.903 Y78.63 E20.16609
G1 X123.566 Y78.977 E20.20343
G1 X124.189 Y79.392 E20.24077
G1 X124.763 Y79.871 E20.27807
G1 X125.284 Y80.408 E20.3154
G1 X125.743 Y80.998 E20.35269
G1 X126.138 Y81.634 E20.39004
G1 X126.462 Y82.308 E20.42735
G1 X126.712 Y83.013 E20.46467
G1 X126.886 Y83.741 E20.50202
G1 X126.981 Y84.483 E20.53934
G1 X127 Y85 E20.56515
G1 X127 Y135 E23.05966
G1 X126.96 Y135.747 E23.09698
G1 X126.841 Y136.485 E23.13427
G1 X126.643 Y137.207 E23.17162
G1 X126.37 Y137.903 E23.20892
G1 X126.023 Y138.566 E23.24626
G1 X125.608 Y139.189 E23.2836
G1 X125.129 Y139.763 E23.3209
G1 X124.592 Y140.284 E23.35823
G1 X124.002 Y140.743 E23.39552
G1 X123.366 Y141.138 E23.43288
G1 X122.692 Y141.462 E23.47018
G1 X121.987 Y141.712 E23.5075
G1 X121.259 Y141.886 E23.54485
G1 X120.517 Y141.981 E23.58217
G1 X120 Y142 E23.60798
G1 X100 Y142 E24.60578
G1 X99.253 Y141.96 E24.6431
G1 X98.515 Y141.841 E24.6804
G1 X97.793 Y141.643 E24.71775
G1 X97.097 Y141.37 E24.75505
G1 X96.434 Y141.023 E24.79238
G1 X95.811 Y140.608 E24.82973
G1 X95.237 Y140.129 E24.86703
G1 X94.716 Y139.592 E24.90435
G1 X94.257 Y139.002 E24.94165
G1 X93.862 Y138.366 E24.979
G1 X93.538 Y137.692 E25.01631
G1 X93.288 Y136.987 E25.05363
G1 X93.114 Y136.259 E25.09097
G1 X93.019 Y135.517 E25.12829
G1 X93 Y135 E25.1541
G1 X93 Y85 E27.64861
G1 X93.04 Y84.253 E27.68593
G1 X93.159 Y83.515 E27.72323
G1 X93.357 Y82.793 E27.76058
G1 X93.63 Y82.097 E27.79788
G1 X93.977 Y81.434 E27.83521
G1 X94.392 Y80.811 E27.87256
G1 X94.871 Y80.237 E27.90986
G0 F3600 X94.789 Y80.95
G1 F1800 X95.265 Y80.402 E27.94607
G1 X95.799 Y79.909 E27.98233
G1 X96.384 Y79.479 E28.01855
G1 X97.013 Y79.115 E28.05481
G1 X97.678 Y78.822 E28.09106
G1 X98.371 Y78.604 E28.12731
G1 X99.083 Y78.464 E28.16351
G1 X100 Y78.4 E28.20937
G1 X120 Y78.4 E29.20717
G1 X120.725 Y78.44 E29.2434
G1 X121.442 Y78.559 E29.27966
G1 X122.141 Y78.757 E29.3159
G1 X122.814 Y79.03 E29.35214
G1 X123.453 Y79.375 E29.38837
G1 X124.05 Y79.789 E29.42461
G1 X124.598 Y80.265 E29.46083
G1 X125.091 Y80.799 E29.49708
G1 X125.521 Y81.384 E29.53331
G1 X125.885 Y82.013 E29.56956
G1 X126.178 Y82.678 E29.60582
G1 X126.396 Y83.371 E29.64206
G1 X126.536 Y84.083 E29.67826
G1 X126.6 Y85 E29.72412
G1 X126.6 Y135 E32.21863
G1 X126.56 Y135.725 E32.25486
G1 X126.441 Y136.442 E32.29112
G1 X126.243 Y137.141 E32.32737
G1 X125.97 Y137.814 E32.3636
G1 X125.625 Y138.453 E32.39983
G1 X125.211 Y139.05 E32.43607
G1 X124.735 Y139.598 E32.47229
G1 X124.201 Y140.091 E32.50855
G1 X123.616 Y140.521 E32.54477
G1 X122.987 Y140.885 E32.58103
G1 X122.322 Y141.178 E32.61728
G1 X121.629 Y141.396 E32.65352
G1 X120.917 Y141.536 E32.68973
G1 X120 Y141.6 E32.73559
G1 X100 Y141.6 E33.73339
G1 X99.275 Y141.56 E33.76962
G1 X98.558 Y141.441 E33.80588
G1 X97.859 Y141.243 E33.84212
G1 X97.186 Y140.97 E33.87836
G1 X96.547 Y140.625 E33.91459
G1 X95.95 Y140.211 E33.95083
G1 X95.402 Y139.735 E33.98704
G1 X94.909 Y139.201 E34.0233
G1 X94.479 Y138.616 E34.05953
G1 X94.115 Y137.987 E34.09578
G1 X93.822 Y137.322 E34.13204
G1 X93.604 Y136.629 E34.16828
G1 X93.464 Y135.917 E34.20448
G1 X93.4 Y135 E34.25034
G1 X93.4 Y85 E36.74485
G1 X93.44 Y84.275 E36.78108
G1 X93.559 Y83.558 E36.81734
G1 X93.757 Y82.859 E36.85359
G1 X94.03 Y82.186 E36.88982
G1 X94.375 Y81.547 E36.92605
G1 X94.789 Y80.95 E36.96229
G0 F3600 X95.185 Y81.094
G1 F1800 X95.659 Y80.573 E36.99743
G1 X96.189 Y80.109 E37.03258
G1 X96.768 Y79.709 E37.06769
G1 X97.389 Y79.377 E37.10282
G1 X98.043 Y79.117 E37.13793
G1 X98.723 Y78.933 E37.17308
G1 X99.419 Y78.827 E37.2082
G1 X100 Y78.8 E37.23722
G1 X120 Y78.8 E38.23502
G1 X120.703 Y78.84 E38.27015
G1 X121.397 Y78.959 E38.30528
G1 X122.072 Y79.157 E38.34037
G1 X122.721 Y79.429 E38.37548
G1 X123.335 Y79.774 E38.41062
G1 X123.906 Y80.185 E38.44572
G1 X124.427 Y80.659 E38.48086
G1 X124.891 Y81.189 E38.516
G1 X125.291 Y81.768 E38.55111
G1 X125.623 Y82.389 E38.58624
G1 X125.883 Y83.043 E38.62136
G1 X126.067 Y83.723 E38.6565
G1 X126.173 Y84.419 E38.69162
G1 X126.2 Y85 E38.72064
G1 X126.2 Y135 E41.21515
G1 X126.16 Y135.703 E41.25028
G1 X126.041 Y136.397 E41.28541
G1 X125.843 Y137.072 E41.32051
G1 X125.571 Y137.721 E41.35561
G1 X125.226 Y138.335 E41.39075
G1 X124.815 Y138.906 E41.42585
G1 X124.341 Y139.427 E41.46099
G1 X123.811 Y139.891 E41.49613
G1 X123.232 Y140.291 E41.53124
G1 X122.611 Y140.623 E41.56637
G1 X121.957 Y140.883 E41.60149
G1 X121.277 Y141.067 E41.63663
G1 X120.581 Y141.173 E41.67176
G1 X120 Y141.2 E41.70077
G1 X100 Y141.2 E42.69858
G1 X99.297 Y141.16 E42.73371
G1 X98.603 Y141.041 E42.76884
G1 X97.928 Y140.843 E42.80393
G1 X97.279 Y140.571 E42.83904
G1 X96.665 Y140.226 E42.87418
G1 X96.094 Y139.815 E42.90927
G1 X95.573 Y139.341 E42.94442
G1 X95.109 Y138.811 E42.97956
G1 X94.709 Y138.232 E43.01467
G1 X94.377 Y137.611 E43.0498
G1 X94.117 Y136.957 E43.08491
G1 X93.933 Y136.277 E43.12006
G1 X93.827 Y135.581 E43.15518
G1 X93.8 Y135 E43.1842
G1 X93.8 Y85 E45.67871
G1 X93.84 Y84.297 E45.71384
G1 X93.959 Y83.603 E45.74897
G1 X94.157 Y82.928 E45.78406
G1 X94.429 Y82.279 E45.81917
G1 X94.774 Y81.665 E45.85431
G1 X95.185 Y81.094 E45.88941
G0 F3600 X95.582 Y81.242
G1 F1800 X96.053 Y80.751 E45.92335
G1 X96.578 Y80.317 E45.95733
G1 X97.15 Y79.948 E45.99129
G1 X97.762 Y79.649 E46.02528
G1 X98.404 Y79.424 E46.05922
G1 X99.069 Y79.275 E46.09321
G1 X100 Y79.2 E46.13981
G1 X120 Y79.2 E47.13762
G1 X120.68 Y79.24 E47.1716
G1 X121.35 Y79.359 E47.20555
G1 X122.002 Y79.556 E47.23953
G1 X122.626 Y79.828 E47.27349
G1 X123.214 Y80.172 E47.30748
G1 X123.758 Y80.582 E47.34146
G1 X124.249 Y81.053 E47.37541
G1 X124.683 Y81.578 E47.40939
G1 X125.052 Y82.15 E47.44335
G1 X125.351 Y82.762 E47.47733
G1 X125.576 Y83.404 E47.51127
G1 X125.725 Y84.069 E47.54527
G1 X125.8 Y85 E47.59187
G1 X125.8 Y135 E50.08638
G1 X125.76 Y135.68 E50.12037
G1 X125.641 Y136.35 E50.15431
G1 X125.444 Y137.002 E50.1883
G1 X125.172 Y137.626 E50.22226
G1 X124.828 Y138.214 E50.25624
G1 X124.418 Y138.758 E50.29023
G1 X123.947 Y139.249 E50.32417
G1 X123.422 Y139.683 E50.35816
G1 X122.85 Y140.052 E50.39212
G1 X122.238 Y140.351 E50.4261
G1 X121.596 Y140.576 E50.46004
G1 X120.931 Y140.725 E50.49404
G1 X120 Y140.8 E50.54064
G1 X100 Y140.8 E51.53844
G1 X99.32 Y140.76 E51.57242
G1 X98.65 Y140.641 E51.60637
G1 X97.998 Y140.444 E51.64035
G1 X97.374 Y140.172 E51.67431
G1 X96.786 Y139.828 E51.7083
G1 X96.242 Y139.418 E51.74229
G1 X95.751 Y138.947 E51.77623
G1 X95.317 Y138.422 E51.81021
G1 X94.948 Y137.85 E51.84417
G1 X94.649 Y137.238 E51.87816
G1 X94.424 Y136.596 E51.9121
G1 X94.275 Y135.931 E51.9461
G1 X94.2 Y135 E51.99269
G1 X94.2 Y85 E54.4872
G1 X94.24 Y84.32 E54.52119
G1 X94.359 Y83.65 E54.55514
G1 X94.556 Y82.998 E54.58912
G1 X94.828 Y82.374 E54.62308
G1 X95.172 Y81.786 E54.65707
G1 X95.582 Y81.242 E54.69105
G0 F3600 X95.978 Y81.397
G1 F1800 X96.445 Y80.935 E54.72382
G1 X96.965 Y80.534 E54.75659
G1 X97.529 Y80.198 E54.78934
G1 X98.131 Y79.934 E54.82213
G1 X98.76 Y79.744 E54.85491
G1 X99.407 Y79.633 E54.88767
G1 X100 Y79.6 E54.9173
G1 X120 Y79.6 E55.9151
G1 X120.656 Y79.64 E55.94789
G1 X121.302 Y79.759 E55.98066
G1 X121.929 Y79.956 E56.01345
G1 X122.527 Y80.228 E56.04622
G1 X123.088 Y80.57 E56.079
G1 X123.603 Y80.978 E56.11178
G1 X124.065 Y81.445 E56.14456
G1 X124.466 Y81.965 E56.17732
G1 X124.802 Y82.529 E56.21007
G1 X125.066 Y83.131 E56.24287
G1 X125.256 Y83.76 E56.27565
G1 X125.367 Y84.407 E56.3084
G1 X125.4 Y85 E56.33803
G1 X125.4 Y135 E58.83254
G1 X125.36 Y135.656 E58.86533
G1 X125.241 Y136.302 E58.8981
G1 X125.044 Y136.929 E58.93089
G1 X124.772 Y137.527 E58.96366
G1 X124.43 Y138.088 E58.99644
G1 X124.022 Y138.603 E59.02922
G1 X123.555 Y139.065 E59.06199
G1 X123.035 Y139.466 E59.09476
G1 X122.471 Y139.802 E59.12751
G1 X121.869 Y140.066 E59.1603
G1 X121.24 Y140.256 E59.19308
G1 X120.593 Y140.367 E59.22584
G1 X120 Y140.4 E59.25547
G1 X100 Y140.4 E60.25327
G1 X99.344 Y140.36 E60.28606
G1 X98.698 Y140.241 E60.31883
G1 X98.071 Y140.044 E60.35162
G1 X97.473 Y139.772 E60.38439
G1 X96.912 Y139.43 E60.41717
G1 X96.397 Y139.022 E60.44995
G1 X95.935 Y138.555 E60.48273
G1 X95.534 Y138.035 E60.51549
G1 X95.198 Y137.471 E60.54824
G1 X94.934 Y136.869 E60.58104
G1 X94.744 Y136.24 E60.61382
G1 X94.633 Y135.593 E60.64657
G1 X94.6 Y135 E60.6762
G1 X94.6 Y85 E63.17071
G1 X94.64 Y84.344 E63.2035
G1 X94.759 Y83.698 E63.23627
G1 X94.956 Y83.071 E63.26906
G1 X95.228 Y82.473 E63.30183
G1 X95.57 Y81.912 E63.33461
G1 X95.978 Y81.397 E63.36739
G0 F3600 X96.373 Y81.559
G1 F1800 X96.836 Y81.129 E63.39892
G1 X97.35 Y80.76 E63.43048
G1 X97.906 Y80.46 E63.462
G1 X98.495 Y80.232 E63.49351
G1 X99.109 Y80.08 E63.52507
G1 X100 Y80 E63.5697
G1 X120 Y80 E64.5675
G1 X120.631 Y80.04 E64.59905
G1 X121.252 Y80.159 E64.63059
G1 X121.852 Y80.356 E64.6621
G1 X122.424 Y80.627 E64.69368
G1 X122.956 Y80.967 E64.72518
G1 X123.441 Y81.373 E64.75673
G1 X123.871 Y81.836 E64.78826
G1 X124.24 Y82.35 E64.81982
G1 X124.54 Y82.906 E64.85134
G1 X124.768 Y83.495 E64.88285
G1 X124.92 Y84.109 E64.91441
G1 X125 Y85 E64.95904
G1 X125 Y135 E67.45355
G1 X124.96 Y135.631 E67.4851
G1 X124.841 Y136.252 E67.51664
G1 X124.644 Y136.852 E67.54815
G1 X124.373 Y137.424 E67.57973
G1 X124.033 Y137.956 E67.61123
G1 X123.627 Y138.441 E67.64278
G1 X123.164 Y138.871 E67.67431
G1 X122.65 Y139.24 E67.70587
G1 X122.094 Y139.54 E67.73739
G1 X121.505 Y139.768 E67.7689
G1 X120.891 Y139.92 E67.80046
G1 X120 Y140 E67.84509
G1 X100 Y140 E68.84289
G1 X99.369 Y139.96 E68.87444
G1 X98.748 Y139.841 E68.90598
G1 X98.148 Y139.644 E68.93749
G1 X97.576 Y139.373 E68.96907
G1 X97.044 Y139.033 E69.00057
G1 X96.559 Y138.627 E69.03212
G1 X96.129 Y138.164 E69.06365
G1 X95.76 Y137.65 E69.09522
G1 X95.46 Y137.094 E69.12673
G1 X95.232 Y136.505 E69.15824
G1 X95.08 Y135.891 E69.1898
G1 X95 Y135 E69.23443
G1 X95 Y85 E71.72894
G1 X95.04 Y84.369 E71.76049
G1 X95.159 Y83.748 E71.79203
G1 X95.356 Y83.148 E71.82354
G1 X95.627 Y82.576 E71.85512
G1 X95.967 Y82.044 E71.88662
G1 X96.373 Y81.559 E71.91817
G0 F3600 X96.365 Y82.181
G1 F1800 X96.767 Y81.728 E71.94839
G1 X97.225 Y81.331 E71.97863
G1 X97.732 Y80.998 E72.00889
G1 X98.278 Y80.734 E72.03915
G1 X98.854 Y80.545 E72.06939
G1 X99.45 Y80.433 E72.09965
G1 X100 Y80.4 E72.12713
G1 X120 Y80.4 E73.12494
G1 X120.605 Y80.44 E73.15519
G1 X121.199 Y80.559 E73.18541
G1 X121.773 Y80.755 E73.21567
G1 X122.316 Y81.026 E73.24595
G1 X122.819 Y81.365 E73.27621
G1 X123.272 Y81.767 E73.30643
G1 X123.669 Y82.225 E73.33667
G1 X124.002 Y82.732 E73.36693
G1 X124.266 Y83.278 E73.39719
G1 X124.455 Y83.854 E73.42743
G1 X124.567 Y84.45 E73.45768
G1 X124.6 Y85 E73.48517
G1 X124.6 Y135 E75.97968
G1 X124.56 Y135.605 E76.00993
G1 X124.441 Y136.199 E76.04016
