;FLAVOR:Marlin
;TIME:1178
;Filament used: 0.994602m
;Layer height: 0.2
;MINX:93.2
;MINY:87.2
;MINZ:0.3
;MAXX:126.8
;MAXY:132.8
;MAXZ:17.9
;Generated with Cura_SteamEngine 4.1.0
M140 S60
M105
M190 S60
M104 S200
M105
M109 S200
M82 ;absolute extrusion mode
G21 ;metric values
G90 ;absolute positioning
M82 ;set extruder to absolute mode
M107 ;start with the fan off
G28 X0 Y0 ;move X/Y to min endstops
G28 Z0 ;move Z to min endstops
G1 Z15.0 F9000 ;move the platform down 15mm
G92 E0 ;zero the extruded length
G1 F200 E3 ;extrude 3mm of feed stock
G92 E0 ;zero the extruded length again
G1 F9000;Put printing message on LCD screen
M117 Printing..0
G92 E0
G92 E0
G1 F1500 E-6.5
;LAYER_COUNT:89
;LAYER:0
M107
G0 F3600 X95.08 Y89.922 Z0.3
;TYPE:SKIRT
G1 F1500 E0
G1 F1800 X95.623 Y89.349 E0.03938
G1 X96.222 Y88.834 E0.0788
G1 X96.87 Y88.383 E0.11818
G1 X97.561 Y87.999 E0.15762
G1 X98.286 Y87.687 E0.197
G1 X99.039 Y87.45 E0.23638
G1 X99.813 Y87.291 E0.27581
G1 X100.598 Y87.21 E0.31518
G1 X101 Y87.2 E0.33524
G1 X119 Y87.2 E1.23326
G1 X119.789 Y87.24 E1.27268
G1 X120.569 Y87.359 E1.31204
G1 X121.334 Y87.557 E1.35147
G1 X122.074 Y87.831 E1.39083
G1 X122.783 Y88.179 E1.43024
G1 X123.454 Y88.597 E1.46968
G1 X124.078 Y89.08 E1.50905
G1 X124.651 Y89.623 E1.54843
G1 X125.166 Y90.222 E1.58784
G1 X125.617 Y90.87 E1.62723
G1 X126.001 Y91.561 E1.66667
G1 X126.313 Y92.286 E1.70605
G1 X126.55 Y93.039 E1.74543
G1 X126.709 Y93.813 E1.78485
G1 X126.79 Y94.598 E1.82422
G1 X126.8 Y95 E1.84429
G1 X126.8 Y125 E3.34099
G1 X126.76 Y125.789 E3.38041
G1 X126.641 Y126.569 E3.41977
G1 X126.443 Y127.334 E3.45919
G1 X126.169 Y128.074 E3.49856
G1 X125.821 Y128.783 E3.53797
G1 X125.403 Y129.454 E3.57741
G1 X124.92 Y130.078 E3.61677
G1 X124.377 Y130.651 E3.65616
G1 X123.778 Y131.166 E3.69557
G1 X123.13 Y131.617 E3.73496
G1 X122.439 Y132.001 E3.7744
G1 X121.714 Y132.313 E3.81377
G1 X120.961 Y132.55 E3.85316
G1 X120.187 Y132.709 E3.89258
G1 X119.402 Y132.79 E3.93195
G1 X119 Y132.8 E3.95201
G1 X101 Y132.8 E4.85004
G1 X100.211 Y132.76 E4.88945
G1 X99.431 Y132.641 E4.92882
G1 X98.666 Y132.443 E4.96824
G1 X97.926 Y132.169 E5.00761
G1 X97.217 Y131.821 E5.04701
G1 X96.546 Y131.403 E5.08645
G1 X95.922 Y130.92 E5.12582
G1 X95.349 Y130.377 E5.1652
G1 X94.834 Y129.778 E5.20461
G1 X94.383 Y129.13 E5.244
G1 X93.999 Y128.439 E5.28344
G1 X93.687 Y127.714 E5.32282
G1 X93.45 Y126.961 E5.3622
G1 X93.291 Y126.187 E5.40163
G1 X93.21 Y125.402 E5.441
G1 X93.2 Y125 E5.46106
G1 X93.2 Y95 E6.95777
G1 X93.24 Y94.211 E6.99718
G1 X93.359 Y93.431 E7.03654
G1 X93.557 Y92.666 E7.07597
G1 X93.831 Y91.926 E7.11534
G1 X94.179 Y91.217 E7.15474
G1 X94.597 Y90.546 E7.19418
G1 X95.08 Y89.922 E7.23355
G0 F3600 X95.475 Y90.077
G1 F1800 X96.016 Y89.53 E7.27193
G1 X96.611 Y89.042 E7.31032
G1 X97.253 Y88.619 E7.34868
G1 X97.936 Y88.264 E7.38708
G1 X98.651 Y87.983 E7.42541
G1 X99.393 Y87.777 E7.46383
G1 X100.151 Y87.649 E7.50218
G1 X101 Y87.6 E7.54461
G1 X119 Y87.6 E8.44263
G1 X119.768 Y87.64 E8.481
G1 X120.528 Y87.759 E8.51938
G1 X121.271 Y87.957 E8.55774
G1 X121.99 Y88.231 E8.59613
G1 X122.676 Y88.578 E8.63448
G1 X123.323 Y88.994 E8.67286
G1 X123.923 Y89.475 E8.71122
G1 X124.47 Y90.016 E8.7496
G1 X124.958 Y90.611 E8.788
G1 X125.381 Y91.253 E8.82635
G1 X125.736 Y91.936 E8.86476
G1 X126.017 Y92.651 E8.90308
G1 X126.223 Y93.393 E8.9415
G1 X126.351 Y94.151 E8.97985
G1 X126.4 Y95 E9.02228
G1 X126.4 Y125 E10.51899
G1 X126.36 Y125.768 E10.55736
G1 X126.241 Y126.528 E10.59573
G1 X126.043 Y127.271 E10.6341
G1 X125.769 Y127.99 E10.67248
G1 X125.422 Y128.676 E10.71084
G1 X125.006 Y129.323 E10.74921
G1 X124.525 Y129.923 E10.78758
G1 X123.984 Y130.47 E10.82596
G1 X123.389 Y130.958 E10.86435
G1 X122.747 Y131.381 E10.90271
G1 X122.064 Y131.736 E10.94111
G1 X121.349 Y132.017 E10.97944
G1 X120.607 Y132.223 E11.01786
G1 X119.849 Y132.351 E11.05621
G1 X119 Y132.4 E11.09864
G1 X101 Y132.4 E11.99666
G1 X100.232 Y132.36 E12.03503
G1 X99.472 Y132.241 E12.07341
G1 X98.729 Y132.043 E12.11177
G1 X98.01 Y131.769 E12.15016
G1 X97.324 Y131.422 E12.18851
G1 X96.677 Y131.006 E12.22689
G1 X96.077 Y130.525 E12.26525
G1 X95.53 Y129.984 E12.30364
G1 X95.042 Y129.389 E12.34203
G1 X94.619 Y128.747 E12.38038
G1 X94.264 Y128.064 E12.41879
G1 X93.983 Y127.349 E12.45711
G1 X93.777 Y126.607 E12.49553
G1 X93.649 Y125.849 E12.53389
G1 X93.6 Y125 E12.57631
G1 X93.6 Y95 E14.07302
G1 X93.64 Y94.232 E14.11139
G1 X93.759 Y93.472 E14.14976
G1 X93.957 Y92.729 E14.18813
G1 X94.231 Y92.01 E14.22651
G1 X94.578 Y91.324 E14.26487
G1 X94.994 Y90.677 E14.30324
G1 X95.475 Y90.077 E14.34161
G0 F3600 X95.871 Y90.237
G1 F1800 X96.408 Y89.716 E14.37894
G1 X96.998 Y89.257 E14.41623
G1 X97.634 Y88.862 E14.45358
G1 X98.308 Y88.538 E14.49089
G1 X99.013 Y88.288 E14.52821
G1 X99.741 Y88.114 E14.56555
G1 X100.483 Y88.019 E14.60287
G1 X101 Y88 E14.62869
G1 X119 Y88 E15.52671
G1 X119.747 Y88.04 E15.56403
G1 X120.485 Y88.159 E15.60132
G1 X121.207 Y88.357 E15.63868
G1 X121.903 Y88.63 E15.67597
G1 X122.566 Y88.977 E15.71331
G1 X123.189 Y89.392 E15.75065
G1 X123.763 Y89.871 E15.78795
G1 X124.284 Y90.408 E15.82528
G1 X124.743 Y90.998 E15.86257
G1 X125.138 Y91.634 E15.89993
G1 X125.462 Y92.308 E15.93724
G1 X125.712 Y93.013 E15.97455
G1 X125.886 Y93.741 E16.0119
G1 X125.981 Y94.483 E16.04922
G1 X126 Y95 E16.07503
G1 X126 Y125 E17.57174
G1 X125.96 Y125.747 E17.60906
G1 X125.841 Y126.485 E17.64635
G1 X125.643 Y127.207 E17.6837
G1 X125.37 Y127.903 E17.721
G1 X125.023 Y128.566 E17.75833
G1 X124.608 Y129.189 E17.79568
G1 X124.129 Y129.763 E17.83298
G1 X123.592 Y130.284 E17.87031
G1 X123.002 Y130.743 E17.9076
G1 X122.366 Y131.138 E17.94495
G1 X121.692 Y131.462 E17.98226
G1 X120.987 Y131.712 E18.01958
G1 X120.259 Y131.886 E18.05692
G1 X119.517 Y131.981 E18.09424
G1 X119 Y132 E18.12006
G1 X101 Y132 E19.01808
G1 X100.253 Y131.96 E19.0554
G1 X99.515 Y131.841 E19.09269
G1 X98.793 Y131.643 E19.13005
G1 X98.097 Y131.37 E19.16734
G1 X97.434 Y131.023 E19.20468
G1 X96.811 Y130.608 E19.24202
G1 X96.237 Y130.129 E19.27932
G1 X95.716 Y129.592 E19.31665
G1 X95.257 Y129.002 E19.35394
G1 X94.862 Y128.366 E19.3913
G1 X94.538 Y127.692 E19.42861
G1 X94.288 Y126.987 E19.46592
G1 X94.114 Y126.259 E19.50327
G1 X94.019 Y125.517 E19.54059
G1 X94 Y125 E19.5664
G1 X94 Y95 E21.0631
G1 X94.04 Y94.253 E21.10043
G1 X94.159 Y93.515 E21.13772
G1 X94.357 Y92.793 E21.17507
G1 X94.63 Y92.097 E21.21237
G1 X94.977 Y91.434 E21.2497
G1 X95.392 Y90.811 E21.28705
G1 X95.871 Y90.237 E21.32435
G0 F3600 X95.789 Y90.95
G1 F1800 X96.265 Y90.402 E21.36056
G1 X96.799 Y89.909 E21.39682
G1 X97.384 Y89.479 E21.43304
G1 X98.013 Y89.115 E21.4693
G1 X98.678 Y88.822 E21.50555
G1 X99.371 Y88.604 E21.5418
G1 X100.083 Y88.464 E21.578
G1 X101 Y88.4 E21.62386
G1 X119 Y88.4 E22.52189
G1 X119.725 Y88.44 E22.55811
G1 X120.442 Y88.559 E22.59437
G1 X121.141 Y88.757 E22.63062
G1 X121.814 Y89.03 E22.66685
G1 X122.453 Y89.375 E22.70308
G1 X123.05 Y89.789 E22.73932
G1 X123.598 Y90.265 E22.77554
G1 X124.091 Y90.799 E22.8118
G1 X124.521 Y91.384 E22.84802
G1 X124.885 Y92.013 E22.88428
G1 X125.178 Y92.678 E22.92053
G1 X125.396 Y93.371 E22.95678
G1 X125.536 Y94.083 E22.99298
G1 X125.6 Y95 E23.03884
G1 X125.6 Y125 E24.53554
G1 X125.56 Y125.725 E24.57177
G1 X125.441 Y126.442 E24.60803
G1 X125.243 Y127.141 E24.64428
G1 X124.97 Y127.814 E24.68051
G1 X124.625 Y128.453 E24.71674
G1 X124.211 Y129.05 E24.75298
G1 X123.735 Y129.598 E24.7892
G1 X123.201 Y130.091 E24.82546
G1 X122.616 Y130.521 E24.86168
G1 X121.987 Y130.885 E24.89793
G1 X121.322 Y131.178 E24.93419
G1 X120.629 Y131.396 E24.97043
G1 X119.917 Y131.536 E25.00664
G1 X119 Y131.6 E25.0525
G1 X101 Y131.6 E25.95052
G1 X100.275 Y131.56 E25.98675
G1 X99.558 Y131.441 E26.02301
G1 X98.859 Y131.243 E26.05925
G1 X98.186 Y130.97 E26.09548
G1 X97.547 Y130.625 E26.13171
G1 X96.95 Y130.211 E26.16796
G1 X96.402 Y129.735 E26.20417
G1 X95.909 Y129.201 E26.24043
G1 X95.479 Y128.616 E26.27665
G1 X95.115 Y127.987 E26.31291
G1 X94.822 Y127.322 E26.34917
G1 X94.604 Y126.629 E26.38541
G1 X94.464 Y125.917 E26.42161
G1 X94.4 Y125 E26.46747
G1 X94.4 Y95 E27.96418
G1 X94.44 Y94.275 E28.0004
G1 X94.559 Y93.558 E28.03666
G1 X94.757 Y92.859 E28.07291
G1 X95.03 Y92.186 E28.10914
G1 X95.375 Y91.547 E28.14537
G1 X95.789 Y90.95 E28.18162
G0 F3600 X96.185 Y91.094
G1 F1800 X96.659 Y90.573 E28.21676
G1 X97.189 Y90.109 E28.2519
G1 X97.768 Y89.709 E28.28701
G1 X98.389 Y89.377 E28.32214
G1 X99.043 Y89.117 E28.35725
G1 X99.723 Y88.933 E28.3924
G1 X100.419 Y88.827 E28.42752
G1 X101 Y88.8 E28.45654
G1 X119 Y88.8 E29.35456
G1 X119.703 Y88.84 E29.38969
G1 X120.397 Y88.959 E29.42482
G1 X121.072 Y89.157 E29.45992
G1 X121.721 Y89.429 E29.49503
G1 X122.335 Y89.774 E29.53016
G1 X122.906 Y90.185 E29.56526
G1 X123.427 Y90.659 E29.6004
G1 X123.891 Y91.189 E29.63555
G1 X124.291 Y91.768 E29.67066
G1 X124.623 Y92.389 E29.70579
G1 X124.883 Y93.043 E29.7409
G1 X125.067 Y93.723 E29.77604
G1 X125.173 Y94.419 E29.81117
G1 X125.2 Y95 E29.84019
G1 X125.2 Y125 E31.33689
G1 X125.16 Y125.703 E31.37202
G1 X125.041 Y126.397 E31.40715
G1 X124.843 Y127.072 E31.44225
G1 X124.571 Y127.721 E31.47735
G1 X124.226 Y128.335 E31.51249
G1 X123.815 Y128.906 E31.54759
G1 X123.341 Y129.427 E31.58273
G1 X122.811 Y129.891 E31.61787
G1 X122.232 Y130.291 E31.65298
G1 X121.611 Y130.623 E31.68811
G1 X120.957 Y130.883 E31.72323
G1 X120.277 Y131.067 E31.75837
G1 X119.581 Y131.173 E31.7935
G1 X119 Y131.2 E31.82251
G1 X101 Y131.2 E32.72054
G1 X100.297 Y131.16 E32.75567
G1 X99.603 Y131.041 E32.7908
G1 X98.928 Y130.843 E32.82589
G1 X98.279 Y130.571 E32.861
G1 X97.665 Y130.226 E32.89613
G1 X97.094 Y129.815 E32.93123
G1 X96.573 Y129.341 E32.96637
G1 X96.109 Y128.811 E33.00152
G1 X95.709 Y128.232 E33.03663
G1 X95.377 Y127.611 E33.07176
G1 X95.117 Y126.957 E33.10687
G1 X94.933 Y126.277 E33.14202
G1 X94.827 Y125.581 E33.17714
G1 X94.8 Y125 E33.20616
G1 X94.8 Y95 E34.70286
G1 X94.84 Y94.297 E34.73799
G1 X94.959 Y93.603 E34.77312
G1 X95.157 Y92.928 E34.80822
G1 X95.429 Y92.279 E34.84332
G1 X95.774 Y91.665 E34.87846
G1 X96.185 Y91.094 E34.91356
G0 F3600 X96.582 Y91.242
G1 F1800 X97.053 Y90.751 E34.94751
G1 X97.578 Y90.317 E34.98149
G1 X98.15 Y89.948 E35.01545
G1 X98.762 Y89.649 E35.04943
G1 X99.404 Y89.424 E35.08337
G1 X100.069 Y89.275 E35.11737
G1 X101 Y89.2 E35.16397
G1 X119 Y89.2 E36.06199
G1 X119.68 Y89.24 E36.09598
G1 X120.35 Y89.359 E36.12993
G1 X121.002 Y89.556 E36.16391
G1 X121.626 Y89.828 E36.19787
G1 X122.214 Y90.172 E36.23185
G1 X122.758 Y90.582 E36.26584
G1 X123.249 Y91.053 E36.29978
G1 X123.683 Y91.578 E36.33377
G1 X124.052 Y92.15 E36.36773
G1 X124.351 Y92.762 E36.40171
G1 X124.576 Y93.404 E36.43565
G1 X124.725 Y94.069 E36.46965
G1 X124.8 Y95 E36.51625
G1 X124.8 Y125 E38.01295
G1 X124.76 Y125.68 E38.04694
G1 X124.641 Y126.35 E38.08089
G1 X124.444 Y127.002 E38.11487
G1 X124.172 Y127.626 E38.14883
G1 X123.828 Y128.214 E38.18281
G1 X123.418 Y128.758 E38.2168
G1 X122.947 Y129.249 E38.25074
G1 X122.422 Y129.683 E38.28473
G1 X121.85 Y130.052 E38.31869
G1 X121.238 Y130.351 E38.35267
G1 X120.596 Y130.576 E38.38661
G1 X119.931 Y130.725 E38.42061
G1 X119 Y130.8 E38.46721
G1 X101 Y130.8 E39.36523
G1 X100.32 Y130.76 E39.39921
G1 X99.65 Y130.641 E39.43316
G1 X98.998 Y130.444 E39.46714
G1 X98.374 Y130.172 E39.50111
G1 X97.786 Y129.828 E39.53509
G1 X97.242 Y129.418 E39.56908
G1 X96.751 Y128.947 E39.60302
G1 X96.317 Y128.422 E39.63701
G1 X95.948 Y127.85 E39.67097
G1 X95.649 Y127.238 E39.70495
G1 X95.424 Y126.596 E39.73889
G1 X95.275 Y125.931 E39.77289
G1 X95.2 Y125 E39.81948
G1 X95.2 Y95 E41.31619
G1 X95.24 Y94.32 E41.35017
G1 X95.359 Y93.65 E41.38412
G1 X95.556 Y92.998 E41.4181
G1 X95.828 Y92.374 E41.45207
G1 X96.172 Y91.786 E41.48605
G1 X96.582 Y91.242 E41.52004
G0 F3600 X96.978 Y91.397
G1 F1800 X97.445 Y90.935 E41.55281
G1 X97.965 Y90.534 E41.58557
G1 X98.529 Y90.198 E41.61832
G1 X99.131 Y89.934 E41.65112
G1 X99.76 Y89.744 E41.6839
G1 X100.407 Y89.633 E41.71665
G1 X101 Y89.6 E41.74628
G1 X119 Y89.6 E42.64431
G1 X119.656 Y89.64 E42.67709
G1 X120.302 Y89.759 E42.70987
G1 X120.929 Y89.956 E42.74266
G1 X121.527 Y90.228 E42.77543
G1 X122.088 Y90.57 E42.80821
G1 X122.603 Y90.978 E42.84099
G1 X123.065 Y91.445 E42.87376
G1 X123.466 Y91.965 E42.90652
G1 X123.802 Y92.529 E42.93928
G1 X124.066 Y93.131 E42.97207
G1 X124.256 Y93.76 E43.00485
G1 X124.367 Y94.407 E43.0376
G1 X124.4 Y95 E43.06723
G1 X124.4 Y125 E44.56394
G1 X124.36 Y125.656 E44.59673
G1 X124.241 Y126.302 E44.6295
G1 X124.044 Y126.929 E44.66229
G1 X123.772 Y127.527 E44.69506
G1 X123.43 Y128.088 E44.72784
G1 X123.022 Y128.603 E44.76062
G1 X122.555 Y129.065 E44.7934
G1 X122.035 Y129.466 E44.82616
G1 X121.471 Y129.802 E44.85891
G1 X120.869 Y130.066 E44.89171
G1 X120.24 Y130.256 E44.92449
G1 X119.593 Y130.367 E44.95724
G1 X119 Y130.4 E44.98687
G1 X101 Y130.4 E45.88489
G1 X100.344 Y130.36 E45.91768
G1 X99.698 Y130.241 E45.95045
G1 X99.071 Y130.044 E45.98324
G1 X98.473 Y129.772 E46.01602
G1 X97.912 Y129.43 E46.0488
G1 X97.397 Y129.022 E46.08157
G1 X96.935 Y128.555 E46.11435
G1 X96.534 Y128.035 E46.14711
G1 X96.198 Y127.471 E46.17986
G1 X95.934 Y126.869 E46.21266
G1 X95.744 Y126.24 E46.24544
G1 X95.633 Y125.593 E46.27819
G1 X95.6 Y125 E46.30782
G1 X95.6 Y95 E47.80453
G1 X95.64 Y94.344 E47.83731
G1 X95.759 Y93.698 E47.87009
G1 X95.956 Y93.071 E47.90287
G1 X96.228 Y92.473 E47.93565
G1 X96.57 Y91.912 E47.96843
G1 X96.978 Y91.397 E48.00121
G0 F3600 X97.373 Y91.559
G1 F1800 X97.836 Y91.129 E48.03273
G1 X98.35 Y90.76 E48.0643
G1 X98.906 Y90.46 E48.09582
G1 X99.495 Y90.232 E48.12733
G1 X100.109 Y90.08 E48.15889
G1 X101 Y90 E48.20352
G1 X119 Y90 E49.10154
G1 X119.631 Y90.04 E49.13309
G1 X120.252 Y90.159 E49.16463
G1 X120.852 Y90.356 E49.19614
G1 X121.424 Y90.627 E49.22772
G1 X121.956 Y90.967 E49.25921
G1 X122.441 Y91.373 E49.29077
G1 X122.871 Y91.836 E49.32229
G1 X123.24 Y92.35 E49.35386
G1 X123.54 Y92.906 E49.38538
G1 X123.768 Y93.495 E49.41689
G1 X123.92 Y94.109 E49.44845
G1 X124 Y95 E49.49308
G1 X124 Y125 E50.98979
G1 X123.96 Y125.631 E51.02133
G1 X123.841 Y126.252 E51.05288
G1 X123.644 Y126.852 E51.08438
G1 X123.373 Y127.424 E51.11596
G1 X123.033 Y127.956 E51.14746
G1 X122.627 Y128.441 E51.17901
G1 X122.164 Y128.871 E51.21054
G1 X121.65 Y129.24 E51.24211
G1 X121.094 Y129.54 E51.27363
G1 X120.505 Y129.768 E51.30514
G1 X119.891 Y129.92 E51.33669
G1 X119 Y130 E51.38132
G1 X101 Y130 E52.27935
G1 X100.369 Y129.96 E52.31089
G1 X99.748 Y129.841 E52.34244
G1 X99.148 Y129.644 E52.37394
G1 X98.576 Y129.373 E52.40552
G1 X98.044 Y129.033 E52.43702
G1 X97.559 Y128.627 E52.46858
G1 X97.129 Y128.164 E52.5001
G1 X96.76 Y127.65 E52.53167
G1 X96.46 Y127.094 E52.56319
G1 X96.232 Y126.505 E52.5947
G1 X96.08 Y125.891 E52.62625
G1 X96 Y125 E52.67089
G1 X96 Y95 E54.16759
G1 X96.04 Y94.369 E54.19914
G1 X96.159 Y93.748 E54.23068
G1 X96.356 Y93.148 E54.26219
G1 X96.627 Y92.576 E54.29377
G1 X96.967 Y92.044 E54.32526
G1 X97.373 Y91.559 E54.35682
G0 F3600 X97.365 Y92.181
G1 F1800 X97.767 Y91.728 E54.38704
G1 X98.225 Y91.331 E54.41728
G1 X98.732 Y90.998 E54.44754
G1 X99.278 Y90.734 E54.47779
G1 X99.854 Y90.545 E54.50804
G1 X100.45 Y90.433 E54.53829
G1 X101 Y90.4 E54.56578
G1 X119 Y90.4 E55.46381
G1 X119.605 Y90.44 E55.49406
G1 X120.199 Y90.559 E55.52428
G1 X120.773 Y90.755 E55.55454
G1 X121.316 Y91.026 E55.58482
G1 X121.819 Y91.365 E55.61508
G1 X122.272 Y91.767 E55.64529
G1 X122.669 Y92.225 E55.67553
G1 X123.002 Y92.732 E55.7058
G1 X123.266 Y93.278 E55.73605
G1 X123.455 Y93.854 E55.7663
G1 X123.567 Y94.45 E55.79655
G1 X123.6 Y95 E55.82404
G1 X123.6 Y125 E57.32075
G1 X123.56 Y125.605 E57.351
G1 X123.441 Y126.199 E57.38122
